X: 201
T: Dui Hua
L: 1/16
M: 2/4
K: Bb
z2 d'2 f'2 d' c' [I:setbarnb 1]| 
f'2 d'2c'4 | 
z2 d'2 f'2 d' c' | 
b2> c'2 b g b2 | 
z2 a2 d'2 c' b | 
c'2 a g f d f2 | 
z2 a2 d'2 c' b | 
c' f' a gf4 |]

@@@ Tune index: 9075
